!!!!SEGMENT: T329_Bar-w17p11s3-4.krn
!!!COM: Bartók, Béla
!!!OTL: II: Scherzo
!!!AGN: Instrumental
!!!AGN-sub: Keyboard
!!!CNT: Hungarian
!!!ODT: 1916
!!!OPR: Suite for Piano, op. 14
!!!filename: T329_Bar-w17p11s3-4.krn
**kern	**kern	**dynam
*grp:A	*grp:B	*
*part1	*part1	*
*staff2	*staff1	*staff1/2
*ICklav	*ICklav	*
*Ipiano	*Ipiano	*
*I"Piano	*I"Piano	*
*I'Pno.	*	*
*clefF4	*clefG2	*
*k[]	*k[]	*
*	*	*
*M3/4	*M3/4	*
=1	=1	=1
*^	*^	*
!	!LO:T:n=1:b	!LO:TX:t=[[half-dot]=92]	!	!LO:DY:ed=brack
4B-X'	2.D-X_	]2.g	]2.g	p
4E'	.	.	.	.
4B-'	.	.	.	.
*	*	*v	*v	*
.	.	(>16qqee/LL	.
.	.	16qqff/	.
.	.	16qqgg/JJ	.
=2	=2	=2	=2
4E'	2.D-]	[2.aa	sf
4B-X'	.	.	.
4E'	.	.	.
=3	=3	=3	=3
4B-X'	[2.D-X	4aa])	.
4E'	.	(4dd-X'	.
4B-'	.	4cc-X'	.
=4	=4	=4	=4
4E'	2.D-]	4a'	.
4B-X'	.	4g'	.
4E'	.	4f'	.
=5	=5	=5	=5
4D-X'	[2.GG	2e-X~	.
4B-X'	.	.	.
4En'	.	4f'	.
=6	=6	=6	=6
4B-X'	2.GG_	[2.c	.
4D-X'	.	.	.
4B-'	.	.	.
=7	=7	=7	=7
!	!	!LO:TX:a:t=rit.	!
4E'	2.GG_	8%3c])	.
4B-X'	.	.	.
.	.	8%3Bn~>	<
4D-X'	.	.	.
=8	=8	=8	=8
4B-X'	2.GG]	8%3c~>	.
4E'	.	.	.
.	.	8%3d~>	[
4B-'	.	.	.
*v	*v	*	*
=9	=9	=9
!	!LO:TX:a:B:t=Tempo I.	!
!	!LO:TX:t=[[half-dot]=122]	!
2.r	4e-X'^^	.
.	4c-X'	.
.	4G'	.
=10	=10	=10
2.r	2.r	.
.	(>16qqb/LL	.
.	16qqcc/	.
.	16qqdd/JJ	.
*clefG2	*	*
=11	=11	=11
*grp:B	*grp:B	*
4G: 4B-X: 4d-X: 4en:	4ee-X')	sf
4r	4cc-X'	.
4r	4g'	.
=12	=12	=12
2.r	2.r	.
.	(>16qqeee/LL	.
.	16qqfff/	.
.	16qqfff#X/JJ	.
=13	=13	=13
2.r	4ggg')	ff
.	4eee-X'	.
.	4bb'	.
=14	=14	=14
4ccc'	2.r	.
4aa-X'	.	.
4een'	.	.
=15	=15	=15
2.r	4gg'	.
.	4ee-X'	.
.	4b'	.
=16	=16	=16
4cc'	2.r	.
\4a-X'	.	.
\4en'	.	.
=17	=17	=17
2.r	4g'>	.
.	4e-X'>	.
.	4B'>	.
=	=	=
*-	*-	*-
!!!system-decoration: [({(s1,s2)})]
!!!RDF**kern: > = above
!!!RDF**kern: < = below
!!!EED: Rafael Laurindo
!!!EEV: 2021/07/12
!!!EED2: Gabriella Vici
!!!EEV2: 2022/02/08
!!!EED3: Bryan Bell
!!!Suter_Work_ID: Bar-17
!!!Suter_Example_Number: 329
!!!Suter_Example_ID: Bar-17/11/3ème et 4ème lignes
!!!Premiere_Location: Budapest,Hungary
!!!Other_Tsigs: none
!!!Full_Unit_Duration: 1:49
!!!First_Publication_Year: 1918
!!!First_Public_Performance_Year: 1919
!!!Example_Total_Measures: 17
!!!Example_Timestamp_Duration: 11
!!!Example_Start_Tsig_Type: simple triple
!!!Example_Start_Tsig_Mean_Beat_Rate: 276
!!!Example_Start_Tsig_Beat_Rate: 276
!!!Example_Start_Tsig_Beat: quarter
!!!Example_Start_Tsig: 3/4
!!!Example_Start_Timestamp: 1:33
!!!Example_Start_Tempo_Expression: [Tranquillo]
!!!Example_Start_Notated_Beat_Rate: [92]
!!!Example_Start_Notated_Beat: [dotted-half]
!!!Example_Start_Measure: 199
!!!Example_Metadata_Validated: Y
!!!Example_End_Timestamp: 1:44
!!!Example_End_Measure: 215
!!!Example_Dataset: T
!!!Editorial_Comments: Example Start Notated Beat and Example Start Notated Beat Rate [dotted-half=92] based on most recent notated beat rate (SWFU, m. 194). Example Start Tempo Expression [Tranquillo] based on most recent notated tempo expression (SWFU, m. 194)
!!!Death_Place: New York,United States
!!!Death_Date: 26-Sep-1945
!!!Changing_Tsig: no
!!!Birth_Place: Sînnicolau Mare (Nagyszentmiklós),Romania (Hungary)
!!!Birth_Date: 25-Mar-1881
!!!Audio_Example_Quarter_Note_Tempo:
!!!Audio_Example_Duration:
!!!EEV3: 2023/06/01
